packages/admin/admin-icons/icons/chevron-down.svg

<svg xmlns="http://www.w3.org/2000/svg" width="16" height="16" viewBox="0 0 16 16"><path fill="#242424" fill-rule="evenodd" d="M3.16271845,5.16874623 C2.96986695,5.36874177 2.94843901,5.67919179 3.09843462,5.90373277 L3.16271845,5.98352512 L8,11 L12.8372815,5.98352512 C13.0542395,5.75853015 13.0542395,5.39374121 12.8372815,5.16874623 C12.64443,4.9687507 12.3450696,4.94652897 12.1285494,5.10208105 L12.0516073,5.16874623 L8,9.37056526 L3.94839266,5.16874623 C3.75554115,4.9687507 3.45618071,4.94652897 3.23966055,5.10208105 L3.16271845,5.16874623 Z"/></svg>

<svg width="16" height="16" fill="none" viewBox="0 0 16 16">
  <path fill="#242424" fill-rule="evenodd" d="M3.163 5.169a.592.592 0 0 0-.065.735l.065.08L8 11l4.837-5.016a.591.591 0 0 0 0-.815.541.541 0 0 0-.708-.067l-.077.067L8 9.37 3.948 5.169a.541.541 0 0 0-.708-.067l-.077.067Z" clip-rule="evenodd"/>
</svg>
